modules/coreui-icons-free/icons/header.svg

<!-- Generated by IcoMoon.io -->
<svg version="1.1" xmlns="http://www.w3.org/2000/svg" width="24" height="24" viewBox="0 0 24 24">
<title>header</title>
<path d="M0.75 0.75v22.5h22.5v-22.5zM21.75 21.75h-19.5v-19.5h19.5z"></path>
<path d="M10.5 17.25h-1.5v-4.5h6v4.5h-1.5v1.5h6v-1.5h-1.5v-10.5h1.5v-1.5h-6v1.5h1.5v4.5h-6v-4.5h1.5v-1.5h-6v1.5h1.5v10.5h-1.5v1.5h6v-1.5z"></path>
</svg>

<svg xmlns="http://www.w3.org/2000/svg" width="24" height="24" viewBox="0 0 24 24"><path d="M.75.75v22.5h22.5V.75zm21 21H2.25V2.25h19.5z"/><path d="M10.5 17.25H9v-4.5h6v4.5h-1.5v1.5h6v-1.5H18V6.75h1.5v-1.5h-6v1.5H15v4.5H9v-4.5h1.5v-1.5h-6v1.5H6v10.5H4.5v1.5h6v-1.5z"/></svg>
